icon-themes/sifr_svg/cmd/sc_insertpagesfield.svg

<svg viewBox="0 0 16 16" xmlns="http://www.w3.org/2000/svg"><path d="m2 1v5h2v-3h5v3h3 2v-1l-4-4zm0 6v1h-1v1h1v2h-1v1h1v1h1v-1h2v1h1v-1h1v-1h-1v-2h1v-1h-1v-1h-1v1h-2v-1zm8 0v1h-1v1h1v2h-1v1h1v1h1v-1h2v1h1v-1h1v-1h-1v-2h1v-1h-1v-1h-1v1h-2v-1zm-7 2h2v2h-2zm8 0h2v2h-2zm-9 5v2h12v-2h-2-8z" fill="#555753"/></svg>

<svg xmlns="http://www.w3.org/2000/svg" viewBox="0 0 16 16">
  <path
     style="fill:#555753"
     d="M 2 1 L 2 6 L 4 6 L 4 3 L 9 3 L 9 6 L 12 6 L 14 6 L 14 5 L 10 1 L 2 1 z M 2 7 L 2 8 L 1 8 L 1 9 L 2 9 L 2 11 L 1 11 L 1 12 L 2 12 L 2 13 L 3 13 L 3 12 L 5 12 L 5 13 L 6 13 L 6 12 L 7 12 L 7 11 L 6 11 L 6 9 L 7 9 L 7 8 L 6 8 L 6 7 L 5 7 L 5 8 L 3 8 L 3 7 L 2 7 z M 10 7 L 10 8 L 9 8 L 9 9 L 10 9 L 10 11 L 9 11 L 9 12 L 10 12 L 10 13 L 11 13 L 11 12 L 13 12 L 13 13 L 14 13 L 14 12 L 15 12 L 15 11 L 14 11 L 14 9 L 15 9 L 15 8 L 14 8 L 14 7 L 13 7 L 13 8 L 11 8 L 11 7 L 10 7 z M 3 9 L 5 9 L 5 11 L 3 11 L 3 9 z M 11 9 L 13 9 L 13 11 L 11 11 L 11 9 z M 2 14 L 2 16 L 14 16 L 14 14 L 12 14 L 4 14 L 2 14 z "
     />
</svg>
